X:1504
T:The Camp of Pleasure
P:Charles Leslie of Findassie's Strathspey
C:D. Grant
R:Strathspey (8x32)
B:RSCDS 15-4
Z:Anselm Lingnau <anselm@strathspey.org>
M:C
L:1/8
K:D
F|"D"D>E F<d A<F F<d|A<F F<d A>F F<d|\
  D>E F<d A<F F<d|"D"A>F "Em"G/F/E/D/ "A7"E2 EF|
  "D"D>E F<d A<F F<d|"G/D"A>F d>B "D"A<F F<A|\
  "Em7"d>e "D"f<a "A7"e<f "D"d<f|A>d "Em7"B/A/G/F/ "A7"E2 E||
A|"D"d>g f>e d<B A>d|"D"A<F F<d A<F F<A|\
  "Em7"d<g f>e "D"d<B A>d|"D"A>F "Em"G/F/E/D/ "A7"E2 EA|
  "D"d<g f>e "G"d<B B>d|"D"A>F F<d A<F F<A|\
  "Em7"d>e "D"f>a "A7"e<f "D"d>f|Ad "Em7"B/A/G/F/ "A7"E2 E|]
